symbolic/22x22/apps/crusader-kings-2.svg

<svg xmlns="http://www.w3.org/2000/svg" width="22" height="22" version="1.1">
 <path style="opacity:0.2;fill-rule:evenodd" d="M 11,0.5 C 8.0000005,1.4466148 4.9999995,2.3964605 2,3.3454996 2.2197504,10.391 3.89825,18.984846 11,21.5 18.1775,19.060769 19.695501,10.315077 20,3.3454996 17,2.3956535 14,1.4458074 11,0.5 Z"/>
 <path style="fill:#e6e6e6;fill-rule:evenodd" d="M 11,1.826529 C 8.46125,2.6086826 5.92325,3.3932015 3.3845,4.1769325 3.5705,9.996567 4.991,17.095086 11,19.173471 17.0735,17.158951 18.3575,9.934279 18.6155,4.1769325 16.07675,3.392413 13.53875,2.607894 11,1.826529"/>
 <path style="fill:#ff9744;fill-rule:evenodd" d="M 11,0 C 8.0000005,0.9466148 4.9999995,1.8964605 2,2.8454996 2.2197504,9.891 3.89825,18.484846 11,21 18.1775,18.560769 19.695501,9.815077 20,2.8454996 17,1.8956535 14,0.9458073 11,0 Z"/>
 <path style="fill:#ffd764;fill-rule:evenodd" d="M 11,0 C 8.0000005,0.9466148 4.9999995,1.8964605 2,2.8454996 2.2197504,9.891 3.89825,18.484846 11,21 Z"/>
 <path style="opacity:0.2;fill-rule:evenodd" d="m 11,2.5976563 c 2.284511,0.7206332 4.570053,1.4434852 6.855469,2.1669922 -0.210903,2.95857 -0.63199,6.0492815 -1.640625,8.6289065 -1.082177,2.767707 -2.682311,4.797861 -5.202148,5.893554 C 8.502443,18.163069 6.8738945,16.129056 5.776367,13.379883 4.750986,10.811427 4.3230935,7.733461 4.135742,4.767578 6.4243395,4.0434685 8.7123085,3.3198263 11,2.5976563 Z"/>
 <path style="fill:#ffffff;fill-rule:evenodd" d="m 11,2.0976563 c 2.284511,0.7206333 4.570053,1.4434852 6.855469,2.1669922 -0.210903,2.95857 -0.63199,6.0492815 -1.640625,8.6289065 -1.082177,2.767707 -2.682311,4.797861 -5.202148,5.893554 C 8.502443,17.663069 6.8738945,15.629056 5.776367,12.879883 4.750986,10.311427 4.3230935,7.233461 4.135742,4.267578 6.4243395,3.5434685 8.7123085,2.8198263 11,2.0976563 Z"/>
 <path style="fill:#ec3e3e" d="M 11,2.0976562 C 10.265082,2.3296526 9.529909,2.562655 8.7949219,2.7949219 L 10,4 V 8 H 6.0683594 5.75 L 4.3378906,6.5878906 c 0.1575003,1.397069 0.393946,2.7782744 0.734375,4.0898434 L 5.75,10 H 6.0683594 10 v 7 l -0.746094,0.746094 c 0.26651,0.201926 0.54492,0.390901 0.837891,0.564453 0.292971,0.173552 0.600503,0.332659 0.921875,0.476562 0.320137,-0.139204 0.623076,-0.293557 0.914062,-0.46289 0.0013,-7.35e-4 0.0026,-0.0012 0.0039,-0.002 0.02744,-0.01599 0.05093,-0.03648 0.07813,-0.05273 0.260703,-0.155773 0.515149,-0.318945 0.753906,-0.498047 0.0015,-0.0011 0.0024,-0.0028 0.0039,-0.0039 L 12,17 V 10 H 15.917969 16.25 l 0.662109,0.662109 C 17.242452,9.362174 17.474024,7.9946149 17.634766,6.6152344 L 16.25,8 H 15.917969 12 V 4 L 13.205078,2.7949219 C 12.470091,2.5627234 11.734812,2.3294477 11,2.0976562 Z"/>
 <path style="opacity:0.2;fill:#ffffff;fill-rule:evenodd" d="M 11,0 C 8.000001,0.9466148 4.9999995,1.896664 2,2.8457031 2.0050662,3.008131 2.014819,3.1748869 2.0214844,3.3388672 5.0143185,2.392091 8.0071665,1.4443538 11,0.5 13.991168,1.4430228 16.982465,2.3898644 19.973633,3.336914 19.982044,3.1736521 19.992946,3.0071592 20,2.8457031 17,1.895857 14,0.9458073 11,0 Z"/>
</svg>

<svg xmlns="http://www.w3.org/2000/svg" width="22" height="22"><path style="opacity:.2;fill-rule:evenodd" d="M11 .5c-3 .947-6 1.896-9 2.845.22 7.046 1.898 15.64 9 18.155 7.177-2.44 8.696-11.185 9-18.155-3-.95-6-1.9-9-2.845z"/><path style="fill:#e6e6e6;fill-rule:evenodd" d="M11 1.827c-2.539.782-5.077 1.566-7.615 2.35C3.57 9.997 4.99 17.095 11 19.173c6.073-2.014 7.358-9.239 7.616-14.996-2.54-.785-5.077-1.57-7.616-2.35"/><path style="fill:#ff9744;fill-rule:evenodd" d="M11 0C8 .947 5 1.896 2 2.845 2.22 9.891 3.898 18.485 11 21c7.177-2.44 8.696-11.185 9-18.155-3-.95-6-1.9-9-2.845z"/><path style="fill:#ffd764;fill-rule:evenodd" d="M11 0C8 .947 5 1.896 2 2.845 2.22 9.891 3.898 18.485 11 21z"/><path style="opacity:.2;fill-rule:evenodd" d="M11 2.598c2.285.72 4.57 1.443 6.855 2.167-.21 2.958-.632 6.049-1.64 8.629-1.082 2.767-2.682 4.797-5.202 5.893-2.51-1.124-4.14-3.158-5.237-5.907-1.025-2.569-1.453-5.647-1.64-8.612C6.424 4.043 8.712 3.32 11 2.598z"/><path style="fill:#fff;fill-rule:evenodd" d="M11 2.098c2.285.72 4.57 1.443 6.855 2.167-.21 2.958-.632 6.049-1.64 8.629-1.082 2.767-2.682 4.797-5.202 5.893-2.51-1.124-4.14-3.158-5.237-5.907-1.025-2.569-1.453-5.647-1.64-8.612C6.424 3.543 8.712 2.82 11 2.098z"/><path style="fill:#ec3e3e" d="m11 2.098-2.205.697L10 4v4H5.75L4.338 6.588c.157 1.397.394 2.778.734 4.09L5.75 10H10v7l-.746.746a8.886 8.886 0 0 0 1.76 1.041c.32-.14.623-.293.914-.463l.004-.002c.027-.016.05-.036.078-.053.26-.155.515-.318.754-.498l.004-.003L12 17v-7h4.25l.662.662c.33-1.3.562-2.667.723-4.047L16.25 8H12V4l1.205-1.205c-.735-.232-1.47-.466-2.205-.697z"/><path style="opacity:.2;fill:#fff;fill-rule:evenodd" d="M11 0C8 .947 5 1.897 2 2.846c.005.162.015.329.021.493C5.014 2.392 8.007 1.444 11 .5c2.991.943 5.982 1.89 8.974 2.837.008-.163.019-.33.026-.491-3-.95-6-1.9-9-2.846z"/></svg>
